svgs/regular/notes-medical.svg

<svg xmlns="http://www.w3.org/2000/svg" viewBox="0 0 512 512"><!--! Font Awesome Pro 6.0.0-alpha3 by @fontawesome - https://fontawesome.com License - https://fontawesome.com/license (Commercial License) --><path d="M354.7 261.3h-40v-40C314.7 214 308.7 208 301.3 208h-26.67c-7.334 0-13.33 6-13.33 13.33v40h-40C213.1 261.3 208 267.3 208 274.7v26.67c0 7.332 5.1 13.33 13.33 13.33h40v40c0 7.332 5.998 13.34 13.33 13.34h26.67c7.334 0 13.33-6.004 13.33-13.34v-40h40c7.333 0 13.33-6 13.33-13.33V274.7C368 267.3 361.1 261.3 354.7 261.3zM416 96H160c-35.34 0-63.1 28.65-64 63.1L96 415.1C95.1 451.3 124.7 480 160 480h226.8c8.486 0 16.62-3.371 22.63-9.375l61.25-61.25c6.002-6.004 9.373-14.14 9.373-22.63L480 160C480 124.8 451.2 96 416 96zM432 380.1L380.1 432H160c-5.766 0-9.564-2.938-11.31-4.688S144 421.8 144 416l.0195-256c0-8.824 7.178-16 16-16h256c8.674 0 16 7.328 16 16V380.1zM0 360v-240C0 53.83 53.83 0 120 0h240C373.3 0 384 10.75 384 24S373.3 48 360 48h-240C80.3 48 48 80.3 48 120v240C48 373.3 37.25 384 24 384S0 373.3 0 360z"/></svg>

<svg xmlns="http://www.w3.org/2000/svg" viewBox="0 0 512 512"><!-- Font Awesome Pro 6.0.0-alpha2 by @fontawesome - https://fontawesome.com License - https://fontawesome.com/license (Commercial License) --><path d="M354.666 261.332H314.666V221.332C314.666 214 308.668 208 301.334 208H274.666C267.332 208 261.334 214 261.334 221.332V261.332H221.334C214 261.332 208 267.332 208 274.664V301.332C208 308.664 214 314.664 221.334 314.664H261.334V354.664C261.334 361.996 267.332 368 274.666 368H301.334C308.668 368 314.666 361.996 314.666 354.664V314.664H354.666C362 314.664 368 308.664 368 301.332V274.664C368 267.332 362 261.332 354.666 261.332ZM336 0H64C28.656 0 0 28.656 0 64V336C0 362.508 21.492 384 48 384V80C48 62.328 62.328 48 80 48H384C384 21.492 362.508 0 336 0ZM416.02 96H160.02C124.676 96 96.021 124.648 96.02 159.996L96 415.996C95.998 451.344 124.652 480 160 480H386.766C395.252 480 403.391 476.629 409.393 470.625L470.646 409.375C476.648 403.371 480.02 395.234 480.02 386.746V160C480.02 124.801 451.219 96 416.02 96ZM432.02 380.121L380.135 432H160C154.234 432 150.436 429.062 148.686 427.312S144 421.766 144 416L144.02 160C144.02 151.176 151.197 144 160.02 144H416.02C424.693 144 432.02 151.328 432.02 160V380.121Z"/></svg>
